mobile/24/svg/folder-24.svg

<svg width="24" height="24" viewBox="0 0 24 24" fill="none" xmlns="http://www.w3.org/2000/svg">
<path fill-rule="evenodd" clip-rule="evenodd" d="M4.5 5.25C4.08625 5.25 3.75 5.58625 3.75 6V18C3.75 18.4138 4.08625 18.75 4.5 18.75H19.5C19.9138 18.75 20.25 18.4138 20.25 18V9C20.25 8.58625 19.9138 8.25 19.5 8.25H12.67C12.4371 8.25 12.2138 8.15714 12.0496 7.99199L9.54256 5.47099C9.40214 5.32965 9.2114 5.25 9.011 5.25H4.5ZM2 6C2 4.61975 3.11975 3.5 4.5 3.5H9.011C9.6766 3.5 10.3142 3.76465 10.7837 4.23731L13.0339 6.5H19.5C20.8802 6.5 22 7.61975 22 9V18C22 19.3802 20.8802 20.5 19.5 20.5H4.5C3.11975 20.5 2 19.3802 2 18V6Z" fill="black"/>
</svg>

<svg width="24" height="24" fill="none" xmlns="http://www.w3.org/2000/svg"><path fill-rule="evenodd" clip-rule="evenodd" d="M4.5 5.25a.75.75 0 0 0-.75.75v12c0 .414.336.75.75.75h15a.75.75 0 0 0 .75-.75V9a.75.75 0 0 0-.75-.75h-6.83a.875.875 0 0 1-.62-.258L9.543 5.471a.748.748 0 0 0-.532-.221H4.5zM2 6a2.5 2.5 0 0 1 2.5-2.5h4.511c.666 0 1.303.265 1.773.737l2.25 2.263H19.5A2.5 2.5 0 0 1 22 9v9a2.5 2.5 0 0 1-2.5 2.5h-15A2.5 2.5 0 0 1 2 18V6z" fill="#000"/></svg>
